src/parts/eyes/Close.svg

<svg>
  <g transform="translate(76.000000, 82.000000)">
    <g
      id="Eyes/Closed"
      transform="translate(0.000000, 8.000000)"
      opacity="0.599999964"
    >
      <path
        id="Closed-Eye"
        d="M16.1601674,32.4473116 C18.006676,28.648508 22.1644225,26 26.9975803,26 C31.8136766,26 35.9591217,28.629842 37.8153518,32.4071242 C38.3667605,33.5291977 37.5821037,34.4474817 36.790607,33.7670228 C34.3395063,31.6597833 30.8587163,30.3437884 26.9975803,30.3437884 C23.2572061,30.3437884 19.8737584,31.5787519 17.4375392,33.5716412 C16.5467928,34.3002944 15.6201012,33.5583844 16.1601674,32.4473116 Z"
        transform="translate(27.000000, 30.000000) scale(1, -1) translate(-27.000000, -30.000000) "
      />
      <path
        id="Closed-Eye"
        d="M74.1601674,32.4473116 C76.006676,28.648508 80.1644225,26 84.9975803,26 C89.8136766,26 93.9591217,28.629842 95.8153518,32.4071242 C96.3667605,33.5291977 95.5821037,34.4474817 94.790607,33.7670228 C92.3395063,31.6597833 88.8587163,30.3437884 84.9975803,30.3437884 C81.2572061,30.3437884 77.8737584,31.5787519 75.4375392,33.5716412 C74.5467928,34.3002944 73.6201012,33.5583844 74.1601674,32.4473116 Z"
        transform="translate(85.000000, 30.000000) scale(1, -1) translate(-85.000000, -30.000000) "
      />
    </g>
  </g>
</svg>

<svg>
  <g transform="translate(76 82)">
    <g id="Eyes/Closed" opacity=".6" transform="translate(0 8)">
      <path id="Closed-Eye" d="M16.16 32.447C18.007 28.65 22.164 26 26.998 26c4.816 0 8.961 2.63 10.817 6.407.552 1.122-.233 2.04-1.024 1.36-2.451-2.107-5.932-3.423-9.793-3.423-3.74 0-7.124 1.235-9.56 3.228-.891.728-1.818-.014-1.278-1.125Zm58 0C76.007 28.65 80.164 26 84.998 26c4.816 0 8.961 2.63 10.817 6.407.552 1.122-.233 2.04-1.024 1.36-2.451-2.107-5.932-3.423-9.793-3.423-3.74 0-7.124 1.235-9.56 3.228-.891.728-1.818-.014-1.278-1.125Z" transform="matrix(1 0 0 -1 0 60)"/>
    </g>
  </g>
</svg>
